X: 25832
T: Master Francis Sitwell
R: strathspey
M: 4/4
K: Cdorian
DE|F>B D>B G2 E>G|F>f e/d/c/B/ A<c cd/e/|d>B F>D E2 E>G|1 F>B AB/c/ B2 D>E:|
[2 F>B AB/c/ B2 d>e|:f>d g>d f2 d>g|1 f>d e/d/c/B/ A<c cd/e/|f>d g>d f>d b>d|
e/d/c/B/ F>c B2 Bd/e/:|2 gd d>B A<c cd/e/|fd BF G2 E>G|F>B AB/c/ B2||

